assets/icons/librescoot-logotype.svg

<svg xmlns="http://www.w3.org/2000/svg" width="662" height="128" fill="none" viewBox="0 0 662 128"><path fill="#fff" d="M0 126.035V0h10.8105v126.035zM38.8477 14.4141V0H51.416v14.4141zm.8789 111.6209V36.0352h10.8105v89.9998zm96.2404-24.697c0 3.633-.703 7.06-2.11 10.283-1.347 3.223-3.222 6.035-5.625 8.438-2.402 2.402-5.214 4.306-8.437 5.712-3.223 1.348-6.65 2.022-10.283 2.022h-7.207q-5.4496 0-10.2835-2.022-4.834-2.109-8.4375-5.712c-2.4024-2.403-4.3067-5.215-5.7129-8.438-1.3477-3.223-2.0215-6.65-2.0215-10.283V0h10.8106v43.5938q3.6914-4.3946 8.8769-6.8555t11.2499-2.461h2.725c3.633 0 7.06.7032 10.283 2.1094 3.223 1.3477 6.035 3.2227 8.437 5.625q3.6045 3.6036 5.625 8.4375c1.407 3.2227 2.11 6.6504 2.11 10.2832zm-10.811-41.2208q0-3.252-1.23-6.0645c-.821-1.9336-1.934-3.6035-3.34-5.0097q-2.109-2.1095-5.01-3.3399c-1.875-.8203-3.896-1.2304-6.064-1.2304h-7.207q-3.2522 0-6.1527 1.2304-2.8125 1.2304-4.9218 3.3399-2.1095 2.1093-3.3399 5.0097-1.2304 2.8125-1.2304 6.0645v41.8358c0 2.168.4101 4.219 1.2304 6.152.8203 1.875 1.9336 3.516 3.3399 4.922 1.4062 1.407 3.0468 2.52 4.9218 3.34 1.9336.821 3.9847 1.231 6.1527 1.231h7.207c2.168 0 4.189-.41 6.064-1.231 1.934-.82 3.604-1.933 5.01-3.34 1.406-1.406 2.519-3.047 3.34-4.922.82-1.933 1.23-3.984 1.23-6.152zm58.887-13.7988c-2.168 0-4.219.4101-6.152 1.2304-1.875.8203-3.516 1.9336-4.922 3.3399-1.407 1.4062-2.52 3.0761-3.34 5.0097-.82 1.875-1.231 3.8965-1.231 6.0645v64.0721h-10.81V36.0352h3.603l5.889 9.1406c2.461-3.3399 5.537-5.9766 9.229-7.9102q5.625-2.9883 12.216-2.9883h6.329v12.0411zm85.342 55.0196c0 3.633-.703 7.06-2.11 10.283-1.347 3.223-3.222 6.035-5.625 8.438-2.402 2.402-5.214 4.306-8.437 5.712-3.223 1.348-6.651 2.022-10.283 2.022h-7.207q-5.4495 0-10.284-2.022c-3.222-1.406-6.035-3.31-8.437-5.712-2.402-2.403-4.307-5.215-5.713-8.438-1.348-3.223-2.021-6.65-2.021-10.283V60.7324c0-3.6328.673-7.0605 2.021-10.2832 1.406-3.2226 3.311-6.0351 5.713-8.4375 2.402-2.4023 5.215-4.2773 8.437-5.625q4.8345-2.1093 10.284-2.1094h7.207c3.632 0 7.06.7032 10.283 2.1094 3.223 1.3477 6.035 3.2227 8.437 5.625q3.6045 3.6036 5.625 8.4375c1.407 3.2227 2.11 6.6504 2.11 10.2832v21.1817h-49.307v20.0389c0 2.168.41 4.219 1.231 6.152.82 1.875 1.933 3.516 3.339 4.922 1.407 1.407 3.047 2.52 4.922 3.34 1.934.821 3.985 1.231 6.153 1.231h7.207c2.168 0 4.189-.41 6.064-1.231 1.934-.82 3.604-1.933 5.01-3.34 1.406-1.406 2.519-3.047 3.34-4.922.82-1.933 1.23-3.984 1.23-6.152v-5.9764l10.811 1.7578zm-10.811-41.2208q0-3.252-1.23-6.0645c-.821-1.9336-1.934-3.6035-3.34-5.0097q-2.109-2.1095-5.01-3.3399c-1.875-.8203-3.896-1.2304-6.064-1.2304h-7.207q-3.252 0-6.153 1.2304c-1.875.8203-3.515 1.9336-4.922 3.3399q-2.109 2.1093-3.339 5.0097c-.821 1.875-1.231 3.8965-1.231 6.0645v13.3594h38.496zm94.307 43.0668c0 3.632-.733 6.972-2.197 10.019-1.465 2.988-3.457 5.567-5.977 7.735-2.519 2.167-5.449 3.867-8.789 5.097q-4.9215 1.758-10.371 1.758h-7.207c-3.633 0-7.119-.674-10.459-2.022-3.281-1.406-6.182-3.31-8.701-5.712-2.461-2.403-4.453-5.215-5.977-8.438-1.465-3.223-2.197-6.65-2.197-10.283v-3.6036l10.81-1.7578v5.9764c0 2.168.44 4.219 1.319 6.152.937 1.875 2.168 3.516 3.691 4.922 1.524 1.407 3.281 2.52 5.274 3.34 1.992.821 4.072 1.231 6.24 1.231h7.207c2.168 0 4.248-.323 6.24-.967 1.992-.645 3.75-1.553 5.274-2.725 1.582-1.23 2.812-2.695 3.691-4.394.937-1.7 1.406-3.633 1.406-5.801 0-3.223-.703-5.8594-2.109-7.9102q-2.109-3.0762-5.625-5.0977c-2.285-1.4062-4.922-2.5488-7.91-3.4277-2.93-.9375-5.948-1.8457-9.053-2.7246a120 120 0 0 1-9.141-3.1641c-2.929-1.1719-5.566-2.6953-7.91-4.5703-2.285-1.9336-4.131-4.3359-5.537-7.207q-2.109-4.3066-2.109-10.7227 0-5.4492 2.109-9.9316c1.406-3.0469 3.311-5.6543 5.713-7.8223s5.185-3.8379 8.35-5.0098c3.222-1.2304 6.65-1.8457 10.283-1.8457h6.328c3.633 0 7.06.7032 10.283 2.1094 3.223 1.3477 6.035 3.2227 8.438 5.625q3.603 3.6036 5.625 8.4375 2.109 4.834 2.109 10.2832v.3516l-10.811 1.7578v-2.7246q0-3.252-1.23-6.0645c-.82-1.9336-1.934-3.6035-3.34-5.0097q-2.109-2.1095-5.01-3.3399c-1.875-.8203-3.896-1.2304-6.064-1.2304h-6.328q-3.252 0-6.153.9668c-1.875.6445-3.515 1.582-4.921 2.8125-1.407 1.1718-2.52 2.6074-3.34 4.3066-.821 1.6992-1.231 3.6328-1.231 5.8008 0 3.1054.703 5.6543 2.11 7.6465 1.406 1.9336 3.252 3.5742 5.537 4.9218 2.343 1.3477 4.98 2.4903 7.91 3.4278 2.988.8789 6.006 1.8164 9.053 2.8125 3.105.9375 6.123 2.0215 9.052 3.2519 2.989 1.2305 5.625 2.8125 7.91 4.7461q3.516 2.9004 5.625 7.2949c1.407 2.8711 2.11 6.4453 2.11 10.7231m80.859-1.846c0 3.633-.703 7.06-2.109 10.283-1.348 3.223-3.223 6.035-5.625 8.438-2.402 2.402-5.215 4.306-8.438 5.712-3.222 1.348-6.65 2.022-10.283 2.022h-7.207c-3.633 0-7.06-.674-10.283-2.022-3.223-1.406-6.035-3.31-8.438-5.712-2.402-2.403-4.306-5.215-5.712-8.438-1.348-3.223-2.022-6.65-2.022-10.283V60.7324q0-5.4492 2.022-10.2832 2.109-4.8339 5.712-8.4375c2.403-2.4023 5.215-4.2773 8.438-5.625 3.223-1.4062 6.65-2.1094 10.283-2.1094h7.207c3.633 0 7.061.7032 10.283 2.1094 3.223 1.3477 6.036 3.2227 8.438 5.625q3.603 3.6036 5.625 8.4375 2.109 4.834 2.109 10.2832v3.6035l-10.81 1.7579v-5.9766c0-2.168-.41-4.1895-1.231-6.0645-.82-1.9336-1.933-3.6035-3.34-5.0097-1.406-1.4063-3.076-2.5196-5.009-3.3399-1.875-.8203-3.897-1.2304-6.065-1.2304h-7.207c-2.168 0-4.219.4101-6.152 1.2304-1.875.8203-3.516 1.9336-4.922 3.3399-1.406 1.4062-2.52 3.0761-3.34 5.0097q-1.23 2.8125-1.23 6.0645v41.8358c0 2.168.41 4.219 1.23 6.152.82 1.875 1.934 3.516 3.34 4.922 1.406 1.407 3.047 2.52 4.922 3.34 1.933.821 3.984 1.231 6.152 1.231h7.207c2.168 0 4.19-.41 6.065-1.231 1.933-.82 3.603-1.933 5.009-3.34 1.407-1.406 2.52-3.047 3.34-4.922.821-1.933 1.231-3.984 1.231-6.152v-5.9764l10.81 1.7578zm81.739 0c0 3.633-.704 7.06-2.11 10.283-1.348 3.223-3.223 6.035-5.625 8.438-2.402 2.402-5.215 4.306-8.437 5.712q-4.8345 2.022-10.284 2.022h-7.207c-3.632 0-7.06-.674-10.283-2.022-3.222-1.406-6.035-3.31-8.437-5.712-2.403-2.403-4.307-5.215-5.713-8.438-1.348-3.223-2.022-6.65-2.022-10.283V60.7324q0-5.4492 2.022-10.2832c1.406-3.2226 3.31-6.0351 5.713-8.4375 2.402-2.4023 5.215-4.2773 8.437-5.625 3.223-1.4062 6.651-2.1094 10.283-2.1094h7.207q5.4495 0 10.284 2.1094c3.222 1.3477 6.035 3.2227 8.437 5.625q3.603 3.6036 5.625 8.4375c1.406 3.2227 2.11 6.6504 2.11 10.2832zm-10.811-41.2208q0-3.252-1.23-6.0645c-.821-1.9336-1.934-3.6035-3.34-5.0097q-2.1105-2.1095-5.01-3.3399c-1.875-.8203-3.897-1.2304-6.065-1.2304h-7.207c-2.168 0-4.218.4101-6.152 1.2304-1.875.8203-3.516 1.9336-4.922 3.3399-1.406 1.4062-2.519 3.0761-3.34 5.0097q-1.23 2.8125-1.23 6.0645v41.8358c0 2.168.41 4.219 1.23 6.152.821 1.875 1.934 3.516 3.34 4.922 1.406 1.407 3.047 2.52 4.922 3.34 1.934.821 3.984 1.231 6.152 1.231h7.207c2.168 0 4.19-.41 6.065-1.231 1.933-.82 3.603-1.933 5.01-3.34 1.406-1.406 2.519-3.047 3.34-4.922.82-1.933 1.23-3.984 1.23-6.152zm92.549 41.2208c0 3.633-.703 7.06-2.11 10.283-1.347 3.223-3.222 6.035-5.625 8.438-2.402 2.402-5.214 4.306-8.437 5.712-3.223 1.348-6.65 2.022-10.283 2.022h-7.207q-5.4495 0-10.284-2.022c-3.222-1.406-6.035-3.31-8.437-5.712-2.402-2.403-4.307-5.215-5.713-8.438-1.348-3.223-2.021-6.65-2.021-10.283V60.7324c0-3.6328.673-7.0605 2.021-10.2832 1.406-3.2226 3.311-6.0351 5.713-8.4375 2.402-2.4023 5.215-4.2773 8.437-5.625q4.8345-2.1093 10.284-2.1094h7.207c3.633 0 7.06.7032 10.283 2.1094 3.223 1.3477 6.035 3.2227 8.437 5.625q3.6045 3.6036 5.625 8.4375c1.407 3.2227 2.11 6.6504 2.11 10.2832zm-10.811-41.2208q0-3.252-1.23-6.0645c-.821-1.9336-1.934-3.6035-3.34-5.0097q-2.109-2.1095-5.01-3.3399c-1.875-.8203-3.896-1.2304-6.064-1.2304h-7.207q-3.252 0-6.153 1.2304c-1.875.8203-3.515 1.9336-4.922 3.3399q-2.109 2.1093-3.339 5.0097c-.821 1.875-1.231 3.8965-1.231 6.0645v41.8358c0 2.168.41 4.219 1.231 6.152.82 1.875 1.933 3.516 3.339 4.922 1.407 1.407 3.047 2.52 4.922 3.34 1.934.821 3.985 1.231 6.153 1.231h7.207c2.168 0 4.189-.41 6.064-1.231 1.934-.82 3.604-1.933 5.01-3.34 1.406-1.406 2.519-3.047 3.34-4.922.82-1.933 1.23-3.984 1.23-6.152zm65.215 65.9178c-3.281 0-6.387-.615-9.316-1.846-2.871-1.23-5.391-2.929-7.559-5.097-2.109-2.168-3.808-4.688-5.098-7.559q-1.845-4.3065-1.845-9.228V46.3184h-16.172V36.0352h16.172V14.4141l10.81-1.7579v23.379h22.852v10.2832h-22.852v56.5136c0 1.816.323 3.516.967 5.098.703 1.523 1.641 2.871 2.813 4.043 1.171 1.172 2.548 2.109 4.13 2.812 1.582.645 3.282.967 5.098.967h9.844v10.283z"/></svg>

<svg width="662" height="128" viewBox="0 0 662 128" fill="none" xmlns="http://www.w3.org/2000/svg">
<path d="M0 126.035V0H10.8105V126.035H0ZM38.8477 14.4141V0H51.416V14.4141H38.8477ZM39.7266 126.035V36.0352H50.5371V126.035H39.7266ZM135.967 101.338C135.967 104.971 135.264 108.398 133.857 111.621C132.51 114.844 130.635 117.656 128.232 120.059C125.83 122.461 123.018 124.365 119.795 125.771C116.572 127.119 113.145 127.793 109.512 127.793H102.305C98.6719 127.793 95.2441 127.119 92.0215 125.771C88.7988 124.365 85.9863 122.461 83.584 120.059C81.1816 117.656 79.2773 114.844 77.8711 111.621C76.5234 108.398 75.8496 104.971 75.8496 101.338V0H86.6602V43.5938C89.1211 40.6641 92.0801 38.3789 95.5371 36.7383C98.9941 35.0977 102.744 34.2773 106.787 34.2773H109.512C113.145 34.2773 116.572 34.9805 119.795 36.3867C123.018 37.7344 125.83 39.6094 128.232 42.0117C130.635 44.4141 132.51 47.2266 133.857 50.4492C135.264 53.6719 135.967 57.0996 135.967 60.7324V101.338ZM125.156 60.1172C125.156 57.9492 124.746 55.9277 123.926 54.0527C123.105 52.1191 121.992 50.4492 120.586 49.043C119.18 47.6367 117.51 46.5234 115.576 45.7031C113.701 44.8828 111.68 44.4727 109.512 44.4727H102.305C100.137 44.4727 98.0859 44.8828 96.1523 45.7031C94.2773 46.5234 92.6367 47.6367 91.2305 49.043C89.8242 50.4492 88.7109 52.1191 87.8906 54.0527C87.0703 55.9277 86.6602 57.9492 86.6602 60.1172V101.953C86.6602 104.121 87.0703 106.172 87.8906 108.105C88.7109 109.98 89.8242 111.621 91.2305 113.027C92.6367 114.434 94.2773 115.547 96.1523 116.367C98.0859 117.188 100.137 117.598 102.305 117.598H109.512C111.68 117.598 113.701 117.188 115.576 116.367C117.51 115.547 119.18 114.434 120.586 113.027C121.992 111.621 123.105 109.98 123.926 108.105C124.746 106.172 125.156 104.121 125.156 101.953V60.1172ZM184.043 46.3184C181.875 46.3184 179.824 46.7285 177.891 47.5488C176.016 48.3691 174.375 49.4824 172.969 50.8887C171.562 52.2949 170.449 53.9648 169.629 55.8984C168.809 57.7734 168.398 59.7949 168.398 61.9629V126.035H157.588V36.0352H161.191L167.08 45.1758C169.541 41.8359 172.617 39.1992 176.309 37.2656C180.059 35.2734 184.131 34.2773 188.525 34.2773H194.854V46.3184H184.043ZM269.385 101.338C269.385 104.971 268.682 108.398 267.275 111.621C265.928 114.844 264.053 117.656 261.65 120.059C259.248 122.461 256.436 124.365 253.213 125.771C249.99 127.119 246.562 127.793 242.93 127.793H235.723C232.09 127.793 228.662 127.119 225.439 125.771C222.217 124.365 219.404 122.461 217.002 120.059C214.6 117.656 212.695 114.844 211.289 111.621C209.941 108.398 209.268 104.971 209.268 101.338V60.7324C209.268 57.0996 209.941 53.6719 211.289 50.4492C212.695 47.2266 214.6 44.4141 217.002 42.0117C219.404 39.6094 222.217 37.7344 225.439 36.3867C228.662 34.9805 232.09 34.2773 235.723 34.2773H242.93C246.562 34.2773 249.99 34.9805 253.213 36.3867C256.436 37.7344 259.248 39.6094 261.65 42.0117C264.053 44.4141 265.928 47.2266 267.275 50.4492C268.682 53.6719 269.385 57.0996 269.385 60.7324V81.9141H220.078V101.953C220.078 104.121 220.488 106.172 221.309 108.105C222.129 109.98 223.242 111.621 224.648 113.027C226.055 114.434 227.695 115.547 229.57 116.367C231.504 117.188 233.555 117.598 235.723 117.598H242.93C245.098 117.598 247.119 117.188 248.994 116.367C250.928 115.547 252.598 114.434 254.004 113.027C255.41 111.621 256.523 109.98 257.344 108.105C258.164 106.172 258.574 104.121 258.574 101.953V95.9766L269.385 97.7344V101.338ZM258.574 60.1172C258.574 57.9492 258.164 55.9277 257.344 54.0527C256.523 52.1191 255.41 50.4492 254.004 49.043C252.598 47.6367 250.928 46.5234 248.994 45.7031C247.119 44.8828 245.098 44.4727 242.93 44.4727H235.723C233.555 44.4727 231.504 44.8828 229.57 45.7031C227.695 46.5234 226.055 47.6367 224.648 49.043C223.242 50.4492 222.129 52.1191 221.309 54.0527C220.488 55.9277 220.078 57.9492 220.078 60.1172V73.4766H258.574V60.1172ZM352.881 103.184C352.881 106.816 352.148 110.156 350.684 113.203C349.219 116.191 347.227 118.77 344.707 120.938C342.188 123.105 339.258 124.805 335.918 126.035C332.637 127.207 329.18 127.793 325.547 127.793H318.34C314.707 127.793 311.221 127.119 307.881 125.771C304.6 124.365 301.699 122.461 299.18 120.059C296.719 117.656 294.727 114.844 293.203 111.621C291.738 108.398 291.006 104.971 291.006 101.338V97.7344L301.816 95.9766V101.953C301.816 104.121 302.256 106.172 303.135 108.105C304.072 109.98 305.303 111.621 306.826 113.027C308.35 114.434 310.107 115.547 312.1 116.367C314.092 117.188 316.172 117.598 318.34 117.598H325.547C327.715 117.598 329.795 117.275 331.787 116.631C333.779 115.986 335.537 115.078 337.061 113.906C338.643 112.676 339.873 111.211 340.752 109.512C341.689 107.812 342.158 105.879 342.158 103.711C342.158 100.488 341.455 97.8516 340.049 95.8008C338.643 93.75 336.768 92.0508 334.424 90.7031C332.139 89.2969 329.502 88.1543 326.514 87.2754C323.584 86.3379 320.566 85.4297 317.461 84.5508C314.355 83.6133 311.309 82.5586 308.32 81.3867C305.391 80.2148 302.754 78.6914 300.41 76.8164C298.125 74.8828 296.279 72.4805 294.873 69.6094C293.467 66.7383 292.764 63.1641 292.764 58.8867C292.764 55.2539 293.467 51.9434 294.873 48.9551C296.279 45.9082 298.184 43.3008 300.586 41.1328C302.988 38.9648 305.771 37.2949 308.936 36.123C312.158 34.8926 315.586 34.2773 319.219 34.2773H325.547C329.18 34.2773 332.607 34.9805 335.83 36.3867C339.053 37.7344 341.865 39.6094 344.268 42.0117C346.67 44.4141 348.545 47.2266 349.893 50.4492C351.299 53.6719 352.002 57.0996 352.002 60.7324V61.084L341.191 62.8418V60.1172C341.191 57.9492 340.781 55.9277 339.961 54.0527C339.141 52.1191 338.027 50.4492 336.621 49.043C335.215 47.6367 333.545 46.5234 331.611 45.7031C329.736 44.8828 327.715 44.4727 325.547 44.4727H319.219C317.051 44.4727 315 44.7949 313.066 45.4395C311.191 46.084 309.551 47.0215 308.145 48.252C306.738 49.4238 305.625 50.8594 304.805 52.5586C303.984 54.2578 303.574 56.1914 303.574 58.3594C303.574 61.4648 304.277 64.0137 305.684 66.0059C307.09 67.9395 308.936 69.5801 311.221 70.9277C313.564 72.2754 316.201 73.418 319.131 74.3555C322.119 75.2344 325.137 76.1719 328.184 77.168C331.289 78.1055 334.307 79.1895 337.236 80.4199C340.225 81.6504 342.861 83.2324 345.146 85.166C347.49 87.0996 349.365 89.5312 350.771 92.4609C352.178 95.332 352.881 98.9062 352.881 103.184ZM433.74 101.338C433.74 104.971 433.037 108.398 431.631 111.621C430.283 114.844 428.408 117.656 426.006 120.059C423.604 122.461 420.791 124.365 417.568 125.771C414.346 127.119 410.918 127.793 407.285 127.793H400.078C396.445 127.793 393.018 127.119 389.795 125.771C386.572 124.365 383.76 122.461 381.357 120.059C378.955 117.656 377.051 114.844 375.645 111.621C374.297 108.398 373.623 104.971 373.623 101.338V60.7324C373.623 57.0996 374.297 53.6719 375.645 50.4492C377.051 47.2266 378.955 44.4141 381.357 42.0117C383.76 39.6094 386.572 37.7344 389.795 36.3867C393.018 34.9805 396.445 34.2773 400.078 34.2773H407.285C410.918 34.2773 414.346 34.9805 417.568 36.3867C420.791 37.7344 423.604 39.6094 426.006 42.0117C428.408 44.4141 430.283 47.2266 431.631 50.4492C433.037 53.6719 433.74 57.0996 433.74 60.7324V64.3359L422.93 66.0938V60.1172C422.93 57.9492 422.52 55.9277 421.699 54.0527C420.879 52.1191 419.766 50.4492 418.359 49.043C416.953 47.6367 415.283 46.5234 413.35 45.7031C411.475 44.8828 409.453 44.4727 407.285 44.4727H400.078C397.91 44.4727 395.859 44.8828 393.926 45.7031C392.051 46.5234 390.41 47.6367 389.004 49.043C387.598 50.4492 386.484 52.1191 385.664 54.0527C384.844 55.9277 384.434 57.9492 384.434 60.1172V101.953C384.434 104.121 384.844 106.172 385.664 108.105C386.484 109.98 387.598 111.621 389.004 113.027C390.41 114.434 392.051 115.547 393.926 116.367C395.859 117.188 397.91 117.598 400.078 117.598H407.285C409.453 117.598 411.475 117.188 413.35 116.367C415.283 115.547 416.953 114.434 418.359 113.027C419.766 111.621 420.879 109.98 421.699 108.105C422.52 106.172 422.93 104.121 422.93 101.953V95.9766L433.74 97.7344V101.338ZM515.479 101.338C515.479 104.971 514.775 108.398 513.369 111.621C512.021 114.844 510.146 117.656 507.744 120.059C505.342 122.461 502.529 124.365 499.307 125.771C496.084 127.119 492.656 127.793 489.023 127.793H481.816C478.184 127.793 474.756 127.119 471.533 125.771C468.311 124.365 465.498 122.461 463.096 120.059C460.693 117.656 458.789 114.844 457.383 111.621C456.035 108.398 455.361 104.971 455.361 101.338V60.7324C455.361 57.0996 456.035 53.6719 457.383 50.4492C458.789 47.2266 460.693 44.4141 463.096 42.0117C465.498 39.6094 468.311 37.7344 471.533 36.3867C474.756 34.9805 478.184 34.2773 481.816 34.2773H489.023C492.656 34.2773 496.084 34.9805 499.307 36.3867C502.529 37.7344 505.342 39.6094 507.744 42.0117C510.146 44.4141 512.021 47.2266 513.369 50.4492C514.775 53.6719 515.479 57.0996 515.479 60.7324V101.338ZM504.668 60.1172C504.668 57.9492 504.258 55.9277 503.438 54.0527C502.617 52.1191 501.504 50.4492 500.098 49.043C498.691 47.6367 497.021 46.5234 495.088 45.7031C493.213 44.8828 491.191 44.4727 489.023 44.4727H481.816C479.648 44.4727 477.598 44.8828 475.664 45.7031C473.789 46.5234 472.148 47.6367 470.742 49.043C469.336 50.4492 468.223 52.1191 467.402 54.0527C466.582 55.9277 466.172 57.9492 466.172 60.1172V101.953C466.172 104.121 466.582 106.172 467.402 108.105C468.223 109.98 469.336 111.621 470.742 113.027C472.148 114.434 473.789 115.547 475.664 116.367C477.598 117.188 479.648 117.598 481.816 117.598H489.023C491.191 117.598 493.213 117.188 495.088 116.367C497.021 115.547 498.691 114.434 500.098 113.027C501.504 111.621 502.617 109.98 503.438 108.105C504.258 106.172 504.668 104.121 504.668 101.953V60.1172ZM597.217 101.338C597.217 104.971 596.514 108.398 595.107 111.621C593.76 114.844 591.885 117.656 589.482 120.059C587.08 122.461 584.268 124.365 581.045 125.771C577.822 127.119 574.395 127.793 570.762 127.793H563.555C559.922 127.793 556.494 127.119 553.271 125.771C550.049 124.365 547.236 122.461 544.834 120.059C542.432 117.656 540.527 114.844 539.121 111.621C537.773 108.398 537.1 104.971 537.1 101.338V60.7324C537.1 57.0996 537.773 53.6719 539.121 50.4492C540.527 47.2266 542.432 44.4141 544.834 42.0117C547.236 39.6094 550.049 37.7344 553.271 36.3867C556.494 34.9805 559.922 34.2773 563.555 34.2773H570.762C574.395 34.2773 577.822 34.9805 581.045 36.3867C584.268 37.7344 587.08 39.6094 589.482 42.0117C591.885 44.4141 593.76 47.2266 595.107 50.4492C596.514 53.6719 597.217 57.0996 597.217 60.7324V101.338ZM586.406 60.1172C586.406 57.9492 585.996 55.9277 585.176 54.0527C584.355 52.1191 583.242 50.4492 581.836 49.043C580.43 47.6367 578.76 46.5234 576.826 45.7031C574.951 44.8828 572.93 44.4727 570.762 44.4727H563.555C561.387 44.4727 559.336 44.8828 557.402 45.7031C555.527 46.5234 553.887 47.6367 552.48 49.043C551.074 50.4492 549.961 52.1191 549.141 54.0527C548.32 55.9277 547.91 57.9492 547.91 60.1172V101.953C547.91 104.121 548.32 106.172 549.141 108.105C549.961 109.98 551.074 111.621 552.48 113.027C553.887 114.434 555.527 115.547 557.402 116.367C559.336 117.188 561.387 117.598 563.555 117.598H570.762C572.93 117.598 574.951 117.188 576.826 116.367C578.76 115.547 580.43 114.434 581.836 113.027C583.242 111.621 584.355 109.98 585.176 108.105C585.996 106.172 586.406 104.121 586.406 101.953V60.1172ZM651.621 126.035C648.34 126.035 645.234 125.42 642.305 124.189C639.434 122.959 636.914 121.26 634.746 119.092C632.637 116.924 630.938 114.404 629.648 111.533C628.418 108.662 627.803 105.586 627.803 102.305V46.3184H611.631V36.0352H627.803V14.4141L638.613 12.6562V36.0352H661.465V46.3184H638.613V102.832C638.613 104.648 638.936 106.348 639.58 107.93C640.283 109.453 641.221 110.801 642.393 111.973C643.564 113.145 644.941 114.082 646.523 114.785C648.105 115.43 649.805 115.752 651.621 115.752H661.465V126.035H651.621Z" fill="white"/>
</svg>
